modules/material-icons/icons/instagram.svg

<svg xmlns="http://www.w3.org/2000/svg" width="24" height="24" viewBox="0 0 24 24"><path d="M20 6.5c0 .28-.22.5-.5.5h-2c-.28 0-.5-.22-.5-.5v-2c0-.28.22-.5.5-.5h2c.28 0 .5.22.5.5M4.5 20c-.28 0-.5-.22-.5-.5V11h2.09c-.06.32-.09.66-.09 1 0 3.31 2.69 6 6 6s6-2.69 6-6c0-.34-.04-.68-.09-1H20v8.5c0 .28-.22.5-.5.5M12 8c2.21 0 4 1.79 4 4s-1.79 4-4 4-4-1.79-4-4 1.79-4 4-4m8-6H4c-1.11 0-2 .89-2 2v16c0 1.1.9 2 2 2h16c1.1 0 2-.9 2-2V4a2 2 0 0 0-2-2z"/></svg>

<?xml version="1.0" encoding="UTF-8"?><!DOCTYPE svg PUBLIC "-//W3C//DTD SVG 1.1//EN" "http://www.w3.org/Graphics/SVG/1.1/DTD/svg11.dtd"><svg xmlns="http://www.w3.org/2000/svg" xmlns:xlink="http://www.w3.org/1999/xlink" version="1.1" width="24" height="24" viewBox="0 0 24 24"><path d="M20,6.5C20,6.78 19.78,7 19.5,7H17.5C17.22,7 17,6.78 17,6.5V4.5C17,4.22 17.22,4 17.5,4H19.5C19.78,4 20,4.22 20,4.5M4.5,20C4.22,20 4,19.78 4,19.5V11H6.09C6.03,11.32 6,11.66 6,12C6,15.31 8.69,18 12,18C15.31,18 18,15.31 18,12C18,11.66 17.96,11.32 17.91,11H20V19.5C20,19.78 19.78,20 19.5,20M12,8C14.21,8 16,9.79 16,12C16,14.21 14.21,16 12,16C9.79,16 8,14.21 8,12C8,9.79 9.79,8 12,8M20,2H4C2.89,2 2,2.89 2,4V20C2,21.1 2.9,22 4,22H20C21.1,22 22,21.1 22,20V4C22,2.89 21.1,2 20,2Z" /></svg>
